images/vignettes/projet4.svg

<svg width="387" height="522" viewBox="0 0 387 522" fill="none" xmlns="http://www.w3.org/2000/svg" xmlns:xlink="http://www.w3.org/1999/xlink">
<rect width="387" height="522" rx="40" fill="#C1272D"/>
<rect width="387" height="522" rx="40" fill="url(#pattern0_64_91)" fill-opacity="0.15"/>
<g clip-path="url(#clip0_64_91)">
<path d="M76.7126 299C74.0853 299 71.6276 298.809 69.3394 298.428C67.0936 298.047 65.1443 297.496 63.4917 296.775V289.211C65.3562 289.974 67.369 290.588 69.5301 291.054C71.6912 291.52 73.8099 291.754 75.8863 291.754C78.8525 291.754 81.0347 291.478 82.4331 290.927C83.8315 290.376 84.5306 289.126 84.5306 287.177C84.5306 285.948 84.234 284.973 83.6408 284.253C83.0475 283.532 82.0094 282.897 80.5263 282.346C79.0856 281.753 77.0304 281.096 74.3608 280.375C70.081 279.189 67.0724 277.706 65.335 275.926C63.5977 274.146 62.729 271.688 62.729 268.552C62.729 264.781 64.1062 261.878 66.8605 259.844C69.6148 257.809 73.6192 256.792 78.8737 256.792C81.3314 256.792 83.6196 256.962 85.7383 257.301C87.857 257.64 89.5732 258.043 90.8868 258.509V266.073C87.4121 264.759 83.7891 264.102 80.0178 264.102C77.3482 264.102 75.2506 264.399 73.7252 264.992C72.1997 265.543 71.437 266.73 71.437 268.552C71.437 269.612 71.7124 270.459 72.2633 271.095C72.8141 271.73 73.7463 272.302 75.06 272.811C76.4159 273.319 78.3016 273.892 80.7169 274.527C84.0645 275.417 86.6494 276.477 88.4715 277.706C90.2936 278.934 91.5436 280.333 92.2216 281.901C92.942 283.469 93.3022 285.227 93.3022 287.177C93.3022 290.736 91.9462 293.597 89.2342 295.758C86.5223 297.919 82.3484 299 76.7126 299ZM99.277 298.364V257.428H107.858V274.591H125.719V257.428H134.299V298.364H125.719V281.202H107.858V298.364H99.277ZM160.169 299C146.906 299 140.274 292.029 140.274 278.087C140.274 270.586 141.948 265.162 145.296 261.814C148.643 258.466 153.601 256.792 160.169 256.792C166.737 256.792 171.695 258.466 175.043 261.814C178.39 265.162 180.064 270.586 180.064 278.087C180.064 292.029 173.432 299 160.169 299ZM160.169 291.69C164.025 291.69 166.843 290.588 168.623 288.385C170.445 286.139 171.356 282.706 171.356 278.087C171.356 272.959 170.445 269.357 168.623 267.281C166.843 265.162 164.025 264.102 160.169 264.102C156.313 264.102 153.474 265.162 151.652 267.281C149.872 269.357 148.982 272.959 148.982 278.087C148.982 282.706 149.872 286.139 151.652 288.385C153.474 290.588 156.313 291.69 160.169 291.69ZM186.039 298.364V257.428H249.5C252.721 257.428 255.348 258.043 257.382 259.271C259.458 260.5 261.005 262.174 262.022 264.293C263.039 266.412 263.548 268.828 263.548 271.54C263.548 274.294 262.954 276.731 261.768 278.85C260.624 280.969 258.971 282.621 256.81 283.808C254.691 284.952 252.17 285.524 249.246 285.524H194.62V298.364H186.039ZM194.62 278.723H247.466C249.924 278.723 251.768 278.087 252.996 276.816C254.268 275.502 254.903 273.743 254.903 271.54C254.903 269.167 254.31 267.366 253.123 266.137C251.937 264.865 250.157 264.23 247.784 264.23H194.62V278.723Z" fill="#FAF8F6"/>
<path d="M103.648 243.817C89.7418 243.817 79.1574 240.274 71.8944 233.187C64.6315 226.101 61 215.073 61 200.103C61 184.248 64.6315 172.865 71.8944 165.956C79.1574 159.047 89.7418 155.593 103.648 155.593C117.554 155.593 128.138 159.047 135.401 165.956C142.664 172.865 146.295 184.248 146.295 200.103C146.295 215.073 142.664 226.101 135.401 233.187C128.138 240.274 117.554 243.817 103.648 243.817ZM103.648 225.614C110.822 225.614 116.048 223.577 119.325 219.502C122.691 215.339 124.374 208.873 124.374 200.103C124.374 190.537 122.691 183.805 119.325 179.907C116.048 175.921 110.822 173.928 103.648 173.928C96.3848 173.928 91.0704 175.921 87.7046 179.907C84.4275 183.805 82.7889 190.537 82.7889 200.103C82.7889 208.873 84.4275 215.339 87.7046 219.502C91.0704 223.577 96.3848 225.614 103.648 225.614ZM178.846 243.817C171.406 243.817 165.604 241.735 161.441 237.572C157.279 233.32 155.197 227.164 155.197 219.103V179.509H176.587V217.907C176.587 221.451 177.429 224.064 179.112 225.747C180.883 227.341 183.496 228.138 186.95 228.138C189.519 228.138 191.955 227.607 194.258 226.544C196.561 225.481 198.465 224.152 199.971 222.558V179.509H221.361V242.488H201.432L200.768 237.173C198.199 239.122 195.099 240.716 191.468 241.956C187.836 243.197 183.629 243.817 178.846 243.817ZM239.164 169.544V153.467H262.414V169.544H239.164ZM240.891 242.488V195.32H231.591L233.451 179.509H262.281V242.488H240.891Z" fill="#FAF8F6"/>
<path d="M288.704 253.019C282.34 252.221 277.414 253.347 273.928 256.401C270.513 259.399 268.27 265.163 267.2 273.692C266.186 281.775 266.952 287.787 269.496 291.727C272.112 295.611 276.602 297.953 282.967 298.752C289.395 299.559 294.322 298.398 297.753 295.273C301.255 292.092 303.513 286.459 304.527 278.376C305.597 269.847 304.816 263.704 302.185 259.947C299.625 256.134 295.133 253.826 288.704 253.019Z" fill="#E35D5D"/>
<path d="M301.963 147.227C297.948 146.722 293.872 147.078 290.006 148.269C286.14 149.46 282.571 151.46 279.537 154.136C276.503 156.812 274.073 160.103 272.409 163.79C270.744 167.478 269.882 171.478 269.881 175.524L269.859 247.02C275.02 244.084 281.675 243.122 289.834 244.148C298.018 245.176 304.221 247.742 308.461 251.836L326.129 182.344C327.119 178.453 327.27 174.395 326.572 170.441C325.874 166.487 324.343 162.725 322.081 159.407C319.819 156.089 316.877 153.29 313.451 151.195C310.025 149.101 306.194 147.759 302.21 147.258L301.963 147.227Z" fill="#E35D5D"/>
</g>
<defs>
<clipPath id="clip0_64_91">
<rect width="266" height="152" fill="white" transform="translate(61 147)"/>
</clipPath>
<pattern id="pattern0_64_91" patternUnits="userSpaceOnUse" patternTransform="matrix(138.922 0 0 157.431 164.694 185.62)" preserveAspectRatio="none" viewBox="5.92432 3.33516 138.922 157.431" width="1" height="1">
<use xlink:href="#pattern0_64_91_inner" transform="translate(0 -157.431)"/>
<use xlink:href="#pattern0_64_91_inner" transform="translate(69.461 -78.7153)"/>
<g id="pattern0_64_91_inner">
<path d="M27.8617 109.35C21.4971 108.552 16.5716 109.678 13.0854 112.732C9.67079 115.73 7.42784 121.494 6.35776 130.023C5.34357 138.106 6.10911 144.118 8.65324 148.057C11.2691 151.942 15.7593 154.284 22.1239 155.083C28.5521 155.889 33.4793 154.729 36.9099 151.603C40.4122 148.423 42.6704 142.79 43.6846 134.707C44.7547 126.178 43.9738 120.035 41.342 116.278C38.7819 112.465 34.2899 110.157 27.8617 109.35Z" fill="#E35D5D"/>
<path d="M41.12 3.5578C37.1055 3.05332 33.0298 3.40845 29.1635 4.59962C25.2972 5.79078 21.7287 7.79074 18.6947 10.4668C15.6608 13.1429 13.2307 16.4338 11.5659 20.1213C9.90105 23.8088 9.0395 27.8085 9.03834 31.855L9.01641 103.351C14.1772 100.414 20.8328 99.4532 28.9915 100.478C37.1756 101.507 43.3788 104.073 47.618 108.167L65.2867 38.6747C66.2763 34.7836 66.4271 30.7262 65.7292 26.7718C65.0312 22.8174 63.5004 19.0564 61.2383 15.7383C58.9763 12.4202 56.0347 9.62097 52.6087 7.52631C49.1828 5.43166 45.3509 4.08949 41.3673 3.58887L41.12 3.5578Z" fill="#E35D5D"/>
</g>
<use xlink:href="#pattern0_64_91_inner" transform="translate(69.461 78.7153)"/>
</pattern></defs>
</svg>

<svg xmlns="http://www.w3.org/2000/svg" xmlns:xlink="http://www.w3.org/1999/xlink" width="387" height="522" fill="none"><rect width="387" height="522" fill="#C1272D" rx="40"/><rect width="387" height="522" fill="url(#a)" fill-opacity=".15" rx="40"/><g clip-path="url(#b)"><path fill="#FAF8F6" d="M76.713 299q-3.941 0-7.374-.572-3.368-.572-5.847-1.653v-7.564q2.796 1.144 6.038 1.843t6.356.7q4.45 0 6.547-.827 2.097-.826 2.098-3.75 0-1.844-.89-2.924-.89-1.081-3.115-1.907-2.16-.89-6.165-1.971-6.42-1.779-9.026-4.449t-2.606-7.374q0-5.657 4.132-8.708 4.13-3.052 12.013-3.052 3.686 0 6.864.509t5.149 1.208v7.564a30.5 30.5 0 0 0-10.87-1.971q-4.003 0-6.292.89-2.288.827-2.288 3.56 0 1.59.826 2.543.826.952 2.797 1.716 2.034.763 5.657 1.716 5.02 1.335 7.755 3.179 2.733 1.842 3.75 4.195 1.08 2.351 1.08 5.276 0 5.339-4.068 8.581T76.713 299m22.564-.636v-40.936h8.581v17.163h17.861v-17.163h8.58v40.936h-8.58v-17.162h-17.861v17.162zm60.892.636q-19.895 0-19.895-20.913 0-11.251 5.022-16.273 5.02-5.022 14.873-5.022t14.874 5.022 5.021 16.273q0 20.913-19.895 20.913m0-7.31q5.784 0 8.454-3.305 2.733-3.37 2.733-10.298 0-7.692-2.733-10.806-2.67-3.179-8.454-3.179t-8.517 3.179q-2.67 3.114-2.67 10.806 0 6.929 2.67 10.298 2.733 3.305 8.517 3.305m25.87 6.674v-40.936H249.5q4.831 0 7.882 1.843 3.114 1.844 4.64 5.022t1.526 7.247q0 4.131-1.78 7.31-1.716 3.178-4.958 4.958-3.178 1.716-7.564 1.716H194.62v12.84zm8.581-19.641h52.846q3.688 0 5.53-1.907 1.907-1.971 1.907-5.276 0-3.56-1.78-5.403-1.78-1.907-5.339-1.907H194.62zM103.648 243.817q-20.858 0-31.754-10.63Q61 222.558 61 200.103q0-23.783 10.894-34.147t31.754-10.363q20.859 0 31.753 10.363 10.894 10.364 10.894 34.147 0 22.455-10.894 33.084t-31.753 10.63m0-18.203q10.761 0 15.677-6.112 5.049-6.244 5.049-19.399 0-14.349-5.049-20.196-4.916-5.979-15.677-5.979-10.895 0-15.943 5.979-4.917 5.847-4.916 20.196 0 13.155 4.916 19.399 5.048 6.112 15.943 6.112m75.198 18.203q-11.16 0-17.405-6.245-6.244-6.378-6.244-18.469v-39.594h21.39v38.398q0 5.316 2.525 7.84 2.657 2.391 7.838 2.391 3.853 0 7.308-1.594t5.713-3.986v-43.049h21.39v62.979h-19.929l-.664-5.315q-3.853 2.923-9.3 4.783t-12.622 1.861m60.318-74.273v-16.077h23.25v16.077zm1.727 72.944V195.32h-9.3l1.86-15.811h28.83v62.979z"/><path fill="#E35D5D" d="M288.704 253.019q-9.546-1.198-14.776 3.382-5.123 4.497-6.728 17.291-1.52 12.125 2.296 18.035 3.924 5.826 13.471 7.025 9.64 1.21 14.786-3.479 5.253-4.772 6.774-16.897 1.605-12.793-2.342-18.429-3.839-5.719-13.481-6.928M301.963 147.227a28.523 28.523 0 0 0-32.082 28.297l-.022 71.496c5.161-2.936 11.816-3.898 19.975-2.872 8.184 1.028 14.387 3.594 18.627 7.688l17.668-69.492a28.31 28.31 0 0 0-4.048-22.937 28.33 28.33 0 0 0-19.871-12.149z"/></g><defs><clipPath id="b"><path fill="#fff" d="M61 147h266v152H61z"/></clipPath><pattern id="a" width="1" height="1" patternTransform="matrix(138.922 0 0 157.431 164.694 185.62)" patternUnits="userSpaceOnUse" preserveAspectRatio="none" viewBox="5.924 3.335 138.922 157.431"><use xlink:href="#c" transform="translate(0 -157.431)"/><use xlink:href="#c" transform="translate(69.461 -78.715)"/><g id="c" fill="#E35D5D"><path d="M27.862 109.35q-9.547-1.198-14.777 3.382-5.121 4.497-6.727 17.291-1.521 12.125 2.295 18.034 3.924 5.827 13.47 7.026c6.43.806 11.356-.354 14.787-3.48q5.253-4.77 6.775-16.896 1.605-12.793-2.343-18.429-3.839-5.719-13.48-6.928M41.12 3.558A28.53 28.53 0 0 0 11.566 20.12a28.5 28.5 0 0 0-2.528 11.734l-.022 71.496c5.161-2.937 11.817-3.898 19.975-2.873 8.185 1.029 14.388 3.595 18.627 7.689l17.669-69.492a28.32 28.32 0 0 0-4.049-22.937 28.33 28.33 0 0 0-19.87-12.15z"/></g><use xlink:href="#c" transform="translate(69.461 78.715)"/></pattern></defs></svg>
